X: 7862
T: Compledgegationist, The
R: jig
M: 6/8
K: Eminor
A|:Bfg fdc|B3 edc|Bfg fdc|Bfg d3|
Bfg fdc|B3 edc|edc B2G|1 AGF G3:|2 AGF GFD||
|:E3 EFG|FdB AFA|B3 cBA|GBA GFD|
E3 EFG|FdB AFA|(3Bcd e efg|1 fdB AFD:|2 fdf e3||

